src/assets/icons/pul-icon-bookslibrary.svg

<!-- Generated by IcoMoon.io -->
<svg version="1.1" xmlns="http://www.w3.org/2000/svg" width="16" height="16" viewBox="0 0 16 16">
<title>bookslibrary</title>
<path d="M15.925 15.083l-3.333-12.909c-0.045-0.179-0.227-0.286-0.405-0.24l-1.937 0.5c-0.086 0.022-0.159 0.077-0.204 0.153s-0.058 0.167-0.036 0.253l0.643 2.493h-3.32v-5c0-0.184-0.15-0.333-0.333-0.333h-4c-0.184 0-0.333 0.149-0.333 0.333v1.667h-2.333c-0.184 0-0.333 0.149-0.333 0.333v13.333c0 0.184 0.149 0.333 0.333 0.333h10.667c0.183 0 0.333-0.149 0.333-0.333v-7.703l2.011 7.786c0.039 0.151 0.174 0.25 0.322 0.25 0.028 0 0.056-0.003 0.084-0.011l1.936-0.5c0.179-0.046 0.285-0.227 0.239-0.406zM2 13.667c0 0.184-0.15 0.333-0.333 0.333s-0.333-0.149-0.333-0.333v-9.333c0-0.184 0.149-0.333 0.333-0.333s0.333 0.149 0.333 0.333v9.333zM4.667 1.667c0-0.184 0.149-0.333 0.333-0.333s0.333 0.149 0.333 0.333v8.667c0 0.184-0.15 0.333-0.333 0.333s-0.333-0.149-0.333-0.333v-8.667zM6 14.333c0 0.184-0.15 0.333-0.333 0.333h-1.333c-0.184 0-0.333-0.149-0.333-0.333v-2.667c0-0.184 0.149-0.333 0.333-0.333h1.333c0.183 0 0.333 0.149 0.333 0.333v2.667zM8.667 7c0-0.184 0.149-0.333 0.333-0.333s0.333 0.149 0.333 0.333v6c0 0.184-0.15 0.333-0.333 0.333s-0.333-0.149-0.333-0.333v-6zM9.667 14.667h-1.333c-0.184 0-0.333-0.149-0.333-0.333s0.149-0.333 0.333-0.333h1.333c0.183 0 0.333 0.149 0.333 0.333s-0.15 0.333-0.333 0.333z"></path>
</svg>

<svg xmlns="http://www.w3.org/2000/svg" viewBox="0 0 16 16">
    <path d="M15.925 15.083L12.592 2.174a.332.332 0 0 0-.405-.24l-1.937.5a.332.332 0 0 0-.24.406l.643 2.493h-3.32v-5A.334.334 0 0 0 7 0H3a.333.333 0 0 0-.333.333V2H.334a.333.333 0 0 0-.333.333v13.333c0 .184.149.333.333.333h10.667a.334.334 0 0 0 .333-.333V7.963l2.011 7.786a.332.332 0 0 0 .406.239l1.936-.5a.332.332 0 0 0 .239-.406zM2 13.667a.334.334 0 0 1-.666 0V4.334a.333.333 0 1 1 .666 0v9.333zm2.667-12a.333.333 0 1 1 .666 0v8.667a.334.334 0 0 1-.666 0V1.667zM6 14.333c0 .184-.15.333-.333.333H4.334a.333.333 0 0 1-.333-.333v-2.667c0-.184.149-.333.333-.333h1.333c.183 0 .333.149.333.333v2.667zM8.667 7a.333.333 0 1 1 .666 0v6a.334.334 0 0 1-.666 0V7zm1 7.667H8.334a.333.333 0 1 1 0-.666h1.333a.334.334 0 0 1 0 .666z"/>
</svg>
